X: 14044
T: JOHN ROGERS' REEL
C: Bob McQuillen Dec'08
B: Bob's Note Book 14 #44
%R: reel
%D:2008
Z: 2020 John Chambers <jc:trillian.mit.edu>
M: C
L: 1/8
K: G
GA \
| B2dB AGED | B2dB AGED | G2BG AGBd | gedB A2GA |
| BdBG AGED | GABG E2DE | GBdg edBe | dBAB G2  :|
|: Bd \
| geag fdgf | eceg d2Bd | cdec Bdeg | agfe d2Bd |
| geag fdBd | eceg dBGB | cdef gedc | BGAF G2  :|
%%begintext align
%% John Rogers
%% comer all the way from Gilford to dance
%% at the "Monday Night Dance in Nelson."
%% That's what is called "dedication"! He
%% sure has a good time and it's always nice
%% to see him there. All the best, John!
%%endtext

%%sep 1 1 500

%%sep 1 1 500

